X: 41608
T: Up Downey
R: reel
M: 4/4
K: Edorian
EFGA ~B2 ed|BAGB AGFG|EFGA ~B2 ef|gfeg faz2|
EFGA ~B2 ed|BAGB AGFG|EFGA ~B2 ed|1 BAGF E2 ED:|2 BAGF E2 ef||
|:gfeg fegf|egfe ~a2 af|gfeg fegf|egfe B2 ef|
gfeg fegf|egfe ~a2 ga|bagb aged|1 Bgfg ~e2 ef:|2 Bgfg e2 GF||

